X:606
T:Reel 606
M:4/4
K:Dmix
L:1/8
AG|F2DF E2GE|F2FE FGAG|F2DF E2GB|AGFD EA,CE|FDDF E2DE|F2AF EFGE|FAAB AFGE|FAEC D2|FG|Addc d2de|f2ef ecAG|Addc d2de|f2af e2AG|Addc dedc|AGAB cAGc|ABcd e2de|fgaf g2|
